X:1     %Music
T:My Boy Billy
Z:R Vaughan Williams
B:A Selection of Collected Folk-Songs,  Novello
F:http://www.folkinfo.og/songs
M:3/4     %Meter
L:1/8     %
K:G
D3/2G/ |GG FE D2 | [M:4/4][L:1/8] d2 d2 Bd
w:"Where have you been all this day,  My boy Bill-y, 
 d3/2d/ |[M:3/4][L:1/8] GG FE D2 |[M:4/4][L:1/8] Dd dd Bd 
w:Where have you been all this day, Pret-ty Bill-y tell me."
cd |e2 B c d2 AB |cA GF D2 
w:"I have been all this day court-ing with a la-dy gay, 
GA |[M:3/4][L:1/8] BG E2 AG |[M:4/4][L:1/8] FD EF GG
w:But she is too young to be ta-ken from her mam-my,
 GA | [M:3/4][L:1/8] BG E2 AG |[M:4/4][L:1/8] FD EF G G3 |]
w: but she is too young to be tak-en from her mam-my." 